X:1
T:Title
%%score { ( 1 3 ) | 2 }
L:1/8
M:4/4
K:Eb
V:1 treble nm="Grand Piano"
V:3 treble 
V:2 bass 
V:1
 z4 z2[Q:1/4=100] EF | G2 G2 G2 G[FA] | [GB]2 [GB]2 [GB]2 cc | B2 [AB]2 [GB]2 GE | %4
 [DF]2 [DF]2 [DF]2 EF | G2 G2 G2 G[FA] | [GB]2 [GB]2 [GB]2 cc | B G3 [EG]2 [DF]2 |[M:3/4] E6 | %9
[M:1/4] G[GB] |[M:4/4] [Ge]3 [EGB] [EAc]2 [EAe]2 | B6 z2 | [EGB]3 [EGB] [EGB]2 [B,EG]2 | %13
[M:3/4] F6 |[M:1/4] [B,EG][B,GB] |[M:4/4] [Ge]2 [Ge]2 [Ge]2 [GB][GB] | [Ac]2 [Ac]2 [GB]2 EF | %17
 G B3 G2 [DF]2 |[M:3/4] E6 |] %19
V:2
 z4 z2 [E,G,][E,A,E] | [E,B,E]2 [E,B,E]2 [E,B,E]2 [E,B,E][E,B,] | %2
 [E,E]2 [E,E]2 [E,E]2[K:treble] [A,EA][A,EA] | [G,E]2 [F,D]2 [E,E]2 [E,B,E][E,G,] | %4
 [B,,B,]2 [B,,B,]2 [B,,B,]2 [E,G,][E,A,E] | [E,B,E]2 [E,B,E]2 [E,B,E]2 [E,B,E][E,B,] | %6
 [E,E]2 [E,E]2 [E,E]2[K:treble] [A,EA][A,EA] | [B,EG][K:bass] [B,E]3 [B,,B,]2 [B,,A,]2 | %8
[M:3/4] [E,G,]6 |[M:1/4] [E,B,E][E,B,] |[M:4/4] [E,B,]3 E, A,2 C,2 | E,2 B,,2 E,2 E,E, | %12
 E,3 E, E,2 E,2 |[M:3/4] B,,2 F,,2 B,,2 |[M:1/4] E,E, |[M:4/4] [E,B,]2 [E,B,]2 [E,B,]2 [E,E][E,E] | %16
 [A,E]2 [A,E]2 [E,E]2 [G,B,][G,B,D] | [E,B,E] [G,B,E]3 [B,E]2 [B,,A,]2 |[M:3/4] [E,G,]6 |] %19
V:3
 x8 | x8 | x8 | x8 | x8 | x8 | x8 | x8 |[M:3/4] x6 |[M:1/4] x2 |[M:4/4] x8 | %11
 [EG]2 [EG]2 [EG]2 [B,EG][B,FA] | x8 |[M:3/4] [B,D]2 [B,D]2 [B,D]2 |[M:1/4] x2 |[M:4/4] x8 | x8 | %17
 x8 |[M:3/4] x6 |] %19

